X: 353
T:El grillo
N: Derived from Jos2812-El_grillo.krn
C: Josquin des Prez
%%abc-version 2.0
%%abcx-abcm2ps-target-version 5.9.1 (29 Sep 2008)
%%abc-creator hum2abc beta
%%abcx-conversion-date 2019/02/12 16:15:54
%%abc-edited-by Jesse Rodin
%%abc-edited-by Will Watson 17/08/2011
%%abcx-initial-encoding-date 2011/08/17/
%%humdrum-veritas 2255894287
%%humdrum-veritas-data 3209683334
%%linebreak <none>
%%barnumbers 0
L: 1/4
M: 2/1
Q: 1/2=120
%%staves [1 2 3 4]
V: 1 clef=treble
V: 2 clef=treble-8
V: 3 clef=treble-8
V: 4 clef=bass
K: C
[V:1] A8 | 
[V:2] f8 | 
[V:3] c8 | 
[V:4] F,8 | 
[V:1] G4F4 | 
[V:2] d8 | 
[V:3] B4A3B | 
[V:4] G,4D,4 | 
[V:1] E4z2G2 | 
[V:2] G4z2d2 | 
[V:3] c4z2B2 | 
[V:4] C,4z2G,,2 | 
[V:1] G2G2^F2F2 | 
[V:2] d2d2d2d2 | 
[V:3] B2B2A2A2 | 
[V:4] G,,2G,,2D,2D,2 | 
[V:1] G4G2G2 | 
[V:2] d4d2d2 | 
[V:3] G4G2G2 | 
[V:4] G,,4G,,2G,,2 | 
[V:1] G2G2G2G2 | 
[V:2] e2e2e2e2 | 
[V:3] G2G2c2c2 | 
[V:4] C,2C,2C,2C,2 | 
[V:1] !fermata!G8- | 
[V:2] e4c3d | 
[V:3] c3de4 | 
[V:4] !fermata!C,8- | 
[V:1] G8- | 
[V:2] e4c3d | 
[V:3] c3de4 | 
[V:4] C,8- | 
[V:1] G8- | 
[V:2] e4c3d | 
[V:3] c3de4 | 
[V:4] C,8- | 
[V:1] G8- | 
[V:2] !fermata!e8- | 
[V:3] !fermata!c8- | 
[V:4] C,8- | 
[V:1] G8 | 
[V:2] e8 | 
[V:3] c8 | 
[V:4] C,8 | 
[V:1] A2A2z4 | 
[V:2] f2f2z4 | 
[V:3] z4c2c2 | 
[V:4] z4F,2F,2 | 
[V:1] A2A2z4 | 
[V:2] f2f2z4 | 
[V:3] z4c2c2 | 
[V:4] z4F,2F,2 | 
[V:1] A2A2z4 | 
[V:2] f2f2z4 | 
[V:3] z4c2c2 | 
[V:4] z4F,2F,2 | 
[V:1] A2A2z4 | 
[V:2] f2f2z4 | 
[V:3] z4c2c2 | 
[V:4] z4F,2F,2 | 
[V:1] AAAAAAAA | 
[V:2] ffffffff | 
[V:3] cccccccc | 
[V:4] F,F,F,F,F,F,F,F, | 
[V:1] AAAAG2G2 | 
[V:2] ffffe2e2 | 
[V:3] ccccc2c2 | 
[V:4] F,F,F,F,C,2C,2 | 
[V:1] A8 | 
[V:2] f8 | 
[V:3] c8 | 
[V:4] F,8 | 
[V:1] G4F4 | 
[V:2] d8 | 
[V:3] B4A3B | 
[V:4] G,4D,4 | 
[V:1] E4z2G2 | 
[V:2] G4z2d2 | 
[V:3] c4z2B2 | 
[V:4] C,4z2G,,2 | 
[V:1] G2G2^F2F2 | 
[V:2] d2d2d2d2 | 
[V:3] B2B2A2A2 | 
[V:4] G,,2G,,2D,2D,2 | 
[V:1] G4!fermata!G4 ]|:  
[V:2] d4!fermata!d4 ]|:  
[V:3] G4!fermata!G4 ]|:  
[V:4] G,,4!fermata!G,,4 ]|:  
[V:1] G2G2G4 | 
[V:2] e2e2e4 | 
[V:3] G2G2c4 | 
[V:4] C,2C,2C,4 | 
[V:1] E2E2F2F2 | 
[V:2] g2g2d2d2 | 
[V:3] c2c2A2A2 | 
[V:4] C,2C,2D,2D,2 | 
[V:1] G4G4 | 
[V:2] d4d4 | 
[V:3] G4G4 | 
[V:4] G,,4G,,4 | 
[V:1] A2A2A4 | 
[V:2] f2f2f4 | 
[V:3] c2c2c4 | 
[V:4] F,2F,2F,3E, | 
[V:1] A2G2G2^F2 | 
[V:2] f2d2d2d2 | 
[V:3] c2B2A2A2 | 
[V:4] F,2G,2D,2D,2 | 
[V:1] G4!fermata!G4 :|]  
[V:2] d4!fermata!d4 :|]  
[V:3] G4!fermata!G4 :|]  
[V:4] G,,4!fermata!G,,4 :|]  
[V:1] G4F4 | 
[V:2] d4d4 | 
[V:3] G4A4 | 
[V:4] G,,4D,4 | 
[V:1] G4E4 | 
[V:2] d4G4 | 
[V:3] B4c4 | 
[V:4] G,,4C,4 | 
[V:1] F4E4 | 
[V:2] z2A2A4 | 
[V:3] A2d4c2 | 
[V:4] D,4A,,4 | 
[V:1] D2D2z2E2 | 
[V:2] A2A2z2A2 | 
[V:3] d2d2z2c2 | 
[V:4] D,2D,2z2A,,2 | 
[V:1] F4E4 | 
[V:2] A4A4 | 
[V:3] d4c4 | 
[V:4] D,4A,,4 | 
[V:1] D2D2z2E2 | 
[V:2] A2A2z2A2 | 
[V:3] d2d2z2c2 | 
[V:4] D,2D,2z2A,,2 | 
[V:1] F4E4 | 
[V:2] A4A4 | 
[V:3] d4c4 | 
[V:4] D,4A,,4 | 
[V:1] D3EF2E2- | 
[V:2] A2A2c2B2 | 
[V:3] d2cBA2G2- | 
[V:4] D,2D,2z2E,2 | 
[V:1] E2D4^C2 | 
[V:2] c2A2A4 | 
[V:3] GFEDE4 | 
[V:4] C,2D,2A,,4 | 
[V:1] D8 ||  
[V:2] A8 ||  
[V:3] D8 ||  
[V:4] D,8 ||  



